packages/tokens/icons/robot/size32Px.svg

<svg viewBox="0 0 32 32" fill="none" xmlns="http://www.w3.org/2000/svg" width="1em" height="1em"><circle cx="10" cy="17" r="0.5" stroke="currentColor"/><circle cx="22" cy="17" r="0.5" stroke="currentColor"/><path d="M13 17.5C13 18.1667 13.75 19.5 16 19.5C18.25 19.5 19 18.1667 19 17.5" stroke="currentColor" stroke-linecap="round" stroke-linejoin="round"/><path d="M4.5 14.5H3.5C2.94772 14.5 2.5 14.9477 2.5 15.5L2.5 19.5C2.5 20.0523 2.94772 20.5 3.5 20.5H4.5" stroke="currentColor"/><path d="M27.5 14.5H28.5C29.0523 14.5 29.5 14.9477 29.5 15.5V19.5C29.5 20.0523 29.0523 20.5 28.5 20.5H27.5" stroke="currentColor"/><path d="M4.5 10.5L4.5 23.5C4.5 24.6046 5.39543 25.5 6.5 25.5L25.5 25.5C26.6046 25.5 27.5 24.6046 27.5 23.5L27.5 10.5C27.5 9.39543 26.6046 8.5 25.5 8.5L6.5 8.5C5.39543 8.5 4.5 9.39543 4.5 10.5Z" stroke="currentColor"/><circle cx="16" cy="4" r="1.5" stroke="currentColor"/><line x1="16" y1="5" x2="16" y2="8" stroke="currentColor"/></svg>

<svg xmlns="http://www.w3.org/2000/svg" fill="none" viewBox="0 0 32 32" width="1em" height="1em"><circle cx="10" cy="17" r=".5" stroke="currentColor"/><circle cx="22" cy="17" r=".5" stroke="currentColor"/><path stroke="currentColor" stroke-linecap="round" stroke-linejoin="round" d="M13 17.5c0 .667.75 2 3 2s3-1.333 3-2"/><path stroke="currentColor" d="M4.5 14.5h-1a1 1 0 0 0-1 1v4a1 1 0 0 0 1 1h1m23-6h1a1 1 0 0 1 1 1v4a1 1 0 0 1-1 1h-1m-23-10v13a2 2 0 0 0 2 2h19a2 2 0 0 0 2-2v-13a2 2 0 0 0-2-2h-19a2 2 0 0 0-2 2Z"/><circle cx="16" cy="4" r="1.5" stroke="currentColor"/><path stroke="currentColor" d="M16 5v3"/></svg>
